img/services/web/landing-page.svg

<svg xmlns="http://www.w3.org/2000/svg" xmlns:xlink="http://www.w3.org/1999/xlink" version="1.1" x="0px" y="0px" viewBox="0 0 100 125" enable-background="new 0 0 100 100" xml:space="preserve"><g display="none"><rect x="5" y="5" display="inline" opacity="0.2" fill="#000000" width="90" height="90"/></g><g><path d="M33,17.5H13v-5h20V17.5z M51,12.5H41v5h10V12.5z M63,12.5H53v5h10V12.5z M75,12.5H65v5h10V12.5z M87,12.5H77v5h10V12.5z    M35,61.086H15v13h20V61.086z M60,61.086H40v13h20V61.086z M85,61.086H65v13h20V61.086z M34,78.086H16v2h18V78.086z M59,78.086H41   v2h18V78.086z M84,78.086H66v2h18V78.086z M31,82.086H16v2h15V82.086z M56,82.086H41v2h15V82.086z M81,82.086H66v2h15V82.086z    M95,5H5v90h90V5z M90,20H10V10h80V20z M90,90H10V55h80V90z M60,47.5H40v-5h20V47.5z M70,30H30v-3h40V30z M64,35H36v-2h28V35z"/></g></svg>

<svg xmlns="http://www.w3.org/2000/svg" viewBox="0 0 100 125"><path d="M33 17.5H13v-5h20v5zm18-5H41v5h10v-5zm12 0H53v5h10v-5zm12 0H65v5h10v-5zm12 0H77v5h10v-5zM35 61.086H15v13h20v-13zm25 0H40v13h20v-13zm25 0H65v13h20v-13zm-51 17H16v2h18v-2zm25 0H41v2h18v-2zm25 0H66v2h18v-2zm-53 4H16v2h15v-2zm25 0H41v2h15v-2zm25 0H66v2h15v-2zM95 5H5v90h90V5zm-5 15H10V10h80v10zm0 70H10V55h80v35zM60 47.5H40v-5h20v5zM70 30H30v-3h40v3zm-6 5H36v-2h28v2z"/></svg>
